icon-themes/sifr_svg/cmd/lc_unhainframes.svg

<svg viewBox="0 0 24 24" xmlns="http://www.w3.org/2000/svg"><path d="m8 2c-1.1 0-2 .892-2 2v7c0 1.108.9 2 2 2h8c1.108 0 2-.892 2-2v-7c0-1.108-.892-2-2-2zm0 2h8v7h-8zm0 11c-1.1 0-2 .9-2 2v5h2v-5h8v5h2v-5c0-1.108-.892-2-2-2z" fill="#555753"/></svg>

<svg xmlns="http://www.w3.org/2000/svg" viewBox="0 0 24 24">
  <path
     style="fill:#555753"
     d="M 8 2 C 6.9 2 6 2.892 6 4 L 6 11 C 6 12.108 6.9 13 8 13 L 16 13 C 17.108 13 18 12.108 18 11 L 18 4 C 18 2.892 17.108 2 16 2 L 8 2 z M 8 4 L 16 4 L 16 11 L 8 11 L 8 4 z M 8 15 C 6.9 15 6 15.9 6 17 L 6 22 L 8 22 L 8 17 L 16 17 L 16 22 L 18 22 L 18 17 C 18 15.892 17.108 15 16 15 L 8 15 z "
     />
</svg>
